X:363
%%etbk:tnset id:177,pos:3,rep:3x,ant:
%%etbk:wsite http://www.trad.katesplacedoolin.com/tunes/nedcolemans.html
%%etbk:pldat 2015-07-22T17:16,2015-03-26T19:26,2015-02-03T16:56,2014-12-18T18:26,2014-09-08T18:39,2014-05-12T18:27,2014-05-06T15:53,2014-03-21T16:07,2014-02-12T18:39,2014-02-11T17:29,2014-02-09T11:08,2013-11-12T17:54,2013-11-07T16:27,2013-09-17T10:26,2013-09-02T18:46,2013-08-26T19:02,2013-05-18T13:47,2013-05-14T18:01,2013-05-12T18:11
T:Ned Coleman's
Z: Piano Box Version by Martin Fleischmann
H: Created 2013-02-19 /  Last Modified 2013-03-25
M:6/8
L:1/8
R:jig
K:Gmaj
|: "G"!2!EDE !3!G2!4!A | !2!B!5!eB !4!d2d | !5!e!4!d!2!B !1!GAB | "D"!2!ABA !2!A!1!G!2!E|
"G"!2!EDE !3!G2!4!A | !2!B!5!eB !4!d2d | !5!e!4!d!2!B !1!GAB|1 "D"!2!A!1!G!2!F "G"!3!G2!2!E:|2 "D"!2!A!1!G!2!F "G"!1!GBc||
|: "G"!4!d2!1!B !2!def | "em"!5!g2!3!e !4!f!2!d!1!B | "D"!1!ABA !1!A!1!B!2!d | !3!e!5!g!4!f !3!e2f|
"G"!5!gfe !4!fed | !3!e!2!d!1!B !5!g2g | !3!e!2!d!1!B "D"!2!AGA|1 "G"!3!B!1!G!2!F !1!G!2!B!3!c:|2 "G"!3!B!1!G!2!F !3!G2!2!E||


